!!!OTL: Die Erprobung.
!!!OTL-incipit:ES STAND EINE LINDE IM TIEFEN TAL
!!!COM: Volksweise
!!!ARE: Europa, Mitteleuropa, Deutschland
!!!SCT: F0135
!!!TXL: @@DE
!!!YEM: Copyright 1995, estate of Helmut Schaffrath.
**kern	**text
*ICvox	*
*M2/4	*
*k[]	*
*C:	*
{8g	1._Es
=1	=1
8cc/	ſtand
16cc/	ei-
16cc/	-ne
16cc/L	Lin-
16eeJ	.
(16gg	-de
16ee)	im
=2	=2
8.dd	tie-
16cc	-fen
8b/}	Thal,
{8dd	wohl
=3	=3
8cc/	o-
8a	-ben
8a	breit
8cc/	und
=4	=4
8.g	unten
16f	.
8e}	ſchmal,
{8g	wol
=5	=5
8cc/	o-
8cc/	-ben
16eeq	.
8dd/	breit
16cc/L	und
16ddJ	.
=6	=6
4ee	un-
4dd	-ten
=7	=7
4cc/	ſchmal.
8r}	.
{8cc/	Dar-
=8	=8
8dd/	-un-
[16dd/	-ter
16dd/]	ſaß
8dd/	ein
8ee	ver-
=9	=9
8.dd/	-lob-
16cc/	-tes
8b/}	Paar,
{16b/L	das
16ccJ	.
=10	=10
8dd	un-
8dd	-ver-
8dd	-letʒt
8ee	in
=11	=11
8.dd	Treu-
16cc/	-e
8b/}	war,
{8g	das
=12	=12
8cc/	un-
8cc/	-ver-
16eeq	.
8dd/	-letʒt
16cc/L	in
16ddJ	.
=13	=13
4ee	Treu-
4dd	-e
=14	=14
4cc	war.
8r}	.
==	==
!!!AGN: Liebes - Lied, Treue
!!!ONB: ESAC (Essen Associative Code) Database: FINK
!!!AMT: simple duple
!!!AIN: vox
!!!EED: Helmut Schaffrath
!!!EEV: 1.0
!!!GTL: Volkslieder
!!Text: Volkslied
!!!source: Musikalischer Hausschatz der Deutschen. Eine Sammlung von über 1000 Liedern und Gesängen mit Singstimmen und Klavierbegleitung. Leipzig, Litterarisches Verlags-Haus.
!!!page: 80
!!!URL-scan: https://www.digitale-sammlungen.de/en/view/bsb11144622?page=88,89
!!!ENC: Anna Maria Matuszewska
!!!EEV: 2024/07/25
*-	*-